packages/icons/src/assets/minimal/fullscreen-exit.svg

<svg width="18" height="18" viewBox="0 0 18 18" fill="none" xmlns="http://www.w3.org/2000/svg">
<path d="M10.75 2C11.1642 2 11.5 2.33579 11.5 2.75V6.5H15.25C15.6297 6.5 15.9435 6.78215 15.9932 7.14823L16 7.25C16 7.66421 15.6642 8 15.25 8H10.75C10.3358 8 10 7.66421 10 7.25V2.75C10 2.33579 10.3358 2 10.75 2Z" fill="black"/>
<path d="M14.7197 2.21967C15.0126 1.92678 15.4874 1.92678 15.7803 2.21967C16.0732 2.51256 16.0732 2.98744 15.7803 3.28033L11.2803 7.78033C10.9874 8.07322 10.5126 8.07322 10.2197 7.78033C9.92678 7.48744 9.92678 7.01256 10.2197 6.71967L14.7197 2.21967Z" fill="black"/>
<path d="M7.25 10C7.66421 10 8 10.3358 8 10.75V15.25C8 15.6642 7.66421 16 7.25 16C6.83579 16 6.5 15.6642 6.5 15.25V11.5H2.75C2.3703 11.5 2.05651 11.2178 2.00685 10.8518L2 10.75C2 10.3358 2.33579 10 2.75 10H7.25Z" fill="black"/>
<path d="M6.71967 10.2197C7.01256 9.92678 7.48744 9.92678 7.78033 10.2197C8.07322 10.5126 8.07322 10.9874 7.78033 11.2803L3.28033 15.7803C2.98744 16.0732 2.51256 16.0732 2.21967 15.7803C1.92678 15.4874 1.92678 15.0126 2.21967 14.7197L6.71967 10.2197Z" fill="black"/>
</svg>

<svg xmlns="http://www.w3.org/2000/svg" width="18" height="18" fill="currentColor" viewBox="0 0 18 18">
  <path d="M10.75 2a.75.75 0 0 1 .75.75V6.5h3.75a.75.75 0 0 1 .743.648L16 7.25a.75.75 0 0 1-.75.75h-4.5a.75.75 0 0 1-.75-.75v-4.5a.75.75 0 0 1 .75-.75"/>
  <path d="M14.72 2.22a.75.75 0 1 1 1.06 1.06l-4.5 4.5a.75.75 0 1 1-1.06-1.06zM7.25 10a.75.75 0 0 1 .75.75v4.5a.75.75 0 0 1-1.5 0V11.5H2.75a.75.75 0 0 1-.743-.648L2 10.75a.75.75 0 0 1 .75-.75z"/>
  <path d="M6.72 10.22a.75.75 0 1 1 1.06 1.06l-4.5 4.5a.75.75 0 0 1-1.06-1.06z"/>
</svg>
